X: 1811
T: Polly Wolly Doodle
B: australian traditional tunes wiki
M:2/4
L:1/8
R: March
Q: 1/4=100
K:G
V:1 
G/A/|"G"BB GG/A/|BB GG/A/|BB cB|"D7"A3F/G/|AA FF/G/|AA FF|dd cA|"G"G3G/A/|
B3G/A/|B3G/A/|BB cB|"D7"A3F/G/|AA FF/G/|AA FA/B/|dd cA|"G"G3||
% abcbook-tune_id 6342d53a2018d8abbf9d0342


% abcbook-boost 0
% abcbook-tablature 
% abcbook-transpose 
% abcbook-lastupdated 1665324385378
% abcbook-soundfonts 
% abcbook-repeats 1
% NFF Book 2017

